assets/1. F-P/Notebook/Color/Notebook-color.svg

<svg width="100%" height="100%" viewBox="0 0 32 32" fill="none" xmlns="http://www.w3.org/2000/svg">
<path d="M8 2H25C26.1046 2 27 2.89543 27 4V26H8V2Z" fill="url(#paint0_linear_18_20913)"/>
<path d="M8 2H25C26.1046 2 27 2.89543 27 4V26H8V2Z" fill="url(#paint1_linear_18_20913)"/>
<path d="M6.5 2C5.67157 2 5 2.67157 5 3.5V28H6C6 27.4477 6.44772 27 7 27H8V2H6.5Z" fill="url(#paint2_linear_18_20913)"/>
<path d="M6.5 2C5.67157 2 5 2.67157 5 3.5V28H6C6 27.4477 6.44772 27 7 27H8V2H6.5Z" fill="url(#paint3_radial_18_20913)"/>
<g filter="url(#filter0_i_18_20913)">
<path d="M6.5 26C5.67157 26 5 26.6716 5 27.5V28.5C5 29.3284 5.67157 30 6.5 30H25.9077C26.5608 30 27 29.6655 27 29H7C6.44772 29 6 28.5523 6 28C6 27.4477 6.44772 27 7 27H27V26H6.5Z" fill="url(#paint4_linear_18_20913)"/>
</g>
<g filter="url(#filter1_f_18_20913)">
<rect x="22.8151" y="2.32812" width="0.73177" height="23.5938" fill="#3B2D4A"/>
</g>
<g filter="url(#filter2_f_18_20913)">
<rect width="1" height="3.9375" transform="matrix(1 0 0 -1 22.8151 29.8594)" fill="#42215F"/>
</g>
<path d="M12.4375 6.96875C12.4375 6.41647 12.8852 5.96875 13.4375 5.96875H18.6875C19.2398 5.96875 19.6875 6.41647 19.6875 6.96875V9.03125C19.6875 9.58353 19.2398 10.0312 18.6875 10.0312H13.4375C12.8852 10.0312 12.4375 9.58353 12.4375 9.03125V6.96875Z" fill="#DED7E6"/>
<path d="M27 29V27H7C6.44772 27 6 27.4477 6 28C6 28.5523 6.44772 29 7 29H27Z" fill="url(#paint5_linear_18_20913)"/>
<path d="M27 29V27H7C6.44772 27 6 27.4477 6 28C6 28.5523 6.44772 29 7 29H27Z" fill="url(#paint6_linear_18_20913)"/>
<path d="M27 29V27H7C6.44772 27 6 27.4477 6 28C6 28.5523 6.44772 29 7 29H27Z" fill="url(#paint7_radial_18_20913)"/>
<rect width="1" height="4.07812" transform="matrix(1 0 0 -1 23.0469 30)" fill="url(#paint8_linear_18_20913)"/>
<rect x="23.0469" y="2" width="1" height="23.9219" fill="url(#paint9_linear_18_20913)"/>
<defs>
<filter id="filter0_i_18_20913" x="5" y="26" width="22" height="4.1" filterUnits="userSpaceOnUse" color-interpolation-filters="sRGB">
<feFlood flood-opacity="0" result="BackgroundImageFix"/>
<feBlend mode="normal" in="SourceGraphic" in2="BackgroundImageFix" result="shape"/>
<feColorMatrix in="SourceAlpha" type="matrix" values="0 0 0 0 0 0 0 0 0 0 0 0 0 0 0 0 0 0 127 0" result="hardAlpha"/>
<feOffset dy="0.1"/>
<feGaussianBlur stdDeviation="0.15"/>
<feComposite in2="hardAlpha" operator="arithmetic" k2="-1" k3="1"/>
<feColorMatrix type="matrix" values="0 0 0 0 0.294118 0 0 0 0 0.133333 0 0 0 0 0.419608 0 0 0 1 0"/>
<feBlend mode="normal" in2="shape" result="effect1_innerShadow_18_20913"/>
</filter>
<filter id="filter1_f_18_20913" x="22.3151" y="1.82812" width="1.73175" height="24.5938" filterUnits="userSpaceOnUse" color-interpolation-filters="sRGB">
<feFlood flood-opacity="0" result="BackgroundImageFix"/>
<feBlend mode="normal" in="SourceGraphic" in2="BackgroundImageFix" result="shape"/>
<feGaussianBlur stdDeviation="0.25" result="effect1_foregroundBlur_18_20913"/>
</filter>
<filter id="filter2_f_18_20913" x="22.3151" y="25.4219" width="2" height="4.9375" filterUnits="userSpaceOnUse" color-interpolation-filters="sRGB">
<feFlood flood-opacity="0" result="BackgroundImageFix"/>
<feBlend mode="normal" in="SourceGraphic" in2="BackgroundImageFix" result="shape"/>
<feGaussianBlur stdDeviation="0.25" result="effect1_foregroundBlur_18_20913"/>
</filter>
<linearGradient id="paint0_linear_18_20913" x1="17.5" y1="2" x2="17.5" y2="26" gradientUnits="userSpaceOnUse">
<stop stop-color="#5D4573"/>
<stop offset="1" stop-color="#4B3E59"/>
</linearGradient>
<linearGradient id="paint1_linear_18_20913" x1="28.69" y1="5.38238" x2="25.9803" y2="5.47916" gradientUnits="userSpaceOnUse">
<stop offset="0.408703" stop-color="#7B698D"/>
<stop offset="1" stop-color="#7B698D" stop-opacity="0"/>
</linearGradient>
<linearGradient id="paint2_linear_18_20913" x1="5.20532" y1="16.7376" x2="8" y2="16.7376" gradientUnits="userSpaceOnUse">
<stop stop-color="#50475B"/>
<stop offset="1" stop-color="#453C4F"/>
</linearGradient>
<radialGradient id="paint3_radial_18_20913" cx="0" cy="0" r="1" gradientUnits="userSpaceOnUse" gradientTransform="translate(5.39887 26.6735) rotate(-90) scale(6.6454 1.17096)">
<stop stop-color="#51475C"/>
<stop offset="1" stop-color="#51475C" stop-opacity="0"/>
</radialGradient>
<linearGradient id="paint4_linear_18_20913" x1="6.43117" y1="28.9639" x2="27" y2="28.9316" gradientUnits="userSpaceOnUse">
<stop stop-color="#512F70"/>
<stop offset="1" stop-color="#4F2D6D"/>
</linearGradient>
<linearGradient id="paint5_linear_18_20913" x1="6.7215" y1="28.4155" x2="26.819" y2="28.4155" gradientUnits="userSpaceOnUse">
<stop stop-color="#D5BCEB"/>
<stop offset="1" stop-color="#DCCCED"/>
<stop offset="1" stop-color="#E3D3F2"/>
</linearGradient>
<linearGradient id="paint6_linear_18_20913" x1="16.25" y1="26.738" x2="16.25" y2="28.1574" gradientUnits="userSpaceOnUse">
<stop stop-color="#9F84AE"/>
<stop offset="1" stop-color="#C5B1D6" stop-opacity="0"/>
</linearGradient>
<radialGradient id="paint7_radial_18_20913" cx="0" cy="0" r="1" gradientUnits="userSpaceOnUse" gradientTransform="translate(23.1562 27.2188) rotate(90) scale(3.03125 0.749998)">
<stop stop-color="#937BAD"/>
<stop offset="1" stop-color="#B9A2C9" stop-opacity="0"/>
</radialGradient>
<linearGradient id="paint8_linear_18_20913" x1="0" y1="1.81047" x2="1" y2="1.81047" gradientUnits="userSpaceOnUse">
<stop offset="0.339349" stop-color="#7D56C2"/>
<stop offset="0.788086" stop-color="#8C6CCC"/>
</linearGradient>
<linearGradient id="paint9_linear_18_20913" x1="23.0469" y1="13.1976" x2="24.2837" y2="13.1976" gradientUnits="userSpaceOnUse">
<stop offset="0.373321" stop-color="#8168B6"/>
<stop offset="0.868068" stop-color="#A38AD4"/>
</linearGradient>
</defs>
</svg>

<svg width="100%" height="100%" viewBox="0 0 32 32" xmlns="http://www.w3.org/2000/svg"><path fill="url(#a)" d="M8 2h17a2 2 0 0 1 2 2v22H8z"/><path fill="url(#b)" d="M8 2h17a2 2 0 0 1 2 2v22H8z"/><path fill="url(#c)" d="M6.5 2A1.5 1.5 0 0 0 5 3.5V28h1a1 1 0 0 1 1-1h1V2z"/><path fill="url(#d)" d="M6.5 2A1.5 1.5 0 0 0 5 3.5V28h1a1 1 0 0 1 1-1h1V2z"/><g filter="url(#e)"><path fill="url(#f)" d="M6.5 26A1.5 1.5 0 0 0 5 27.5v1A1.5 1.5 0 0 0 6.5 30h19.408C26.56 30 27 29.666 27 29H7a1 1 0 1 1 0-2h20v-1z"/></g><g filter="url(#g)"><path fill="#3B2D4A" d="M22.815 2.328h.732v23.594h-.732z"/></g><g filter="url(#h)"><path fill="#42215F" d="M22.815 29.86h1V25.92h-1z"/></g><path fill="#DED7E6" d="M12.438 6.969a1 1 0 0 1 1-1h5.25a1 1 0 0 1 1 1V9.03a1 1 0 0 1-1 1h-5.25a1 1 0 0 1-1-1z"/><path fill="url(#i)" d="M27 29v-2H7a1 1 0 1 0 0 2z"/><path fill="url(#j)" d="M27 29v-2H7a1 1 0 1 0 0 2z"/><path fill="url(#k)" d="M27 29v-2H7a1 1 0 1 0 0 2z"/><path fill="url(#l)" d="M0 0h1v4.078H0z" transform="matrix(1 0 0 -1 23.047 30)"/><path fill="url(#m)" d="M23.047 2h1v23.922h-1z"/><defs><linearGradient id="a" x1="17.5" x2="17.5" y1="2" y2="26" gradientUnits="userSpaceOnUse"><stop stop-color="#5D4573"/><stop offset="1" stop-color="#4B3E59"/></linearGradient><linearGradient id="b" x1="28.69" x2="25.98" y1="5.382" y2="5.479" gradientUnits="userSpaceOnUse"><stop offset=".409" stop-color="#7B698D"/><stop offset="1" stop-color="#7B698D" stop-opacity="0"/></linearGradient><linearGradient id="c" x1="5.205" x2="8" y1="16.738" y2="16.738" gradientUnits="userSpaceOnUse"><stop stop-color="#50475B"/><stop offset="1" stop-color="#453C4F"/></linearGradient><linearGradient id="f" x1="6.431" x2="27" y1="28.964" y2="28.932" gradientUnits="userSpaceOnUse"><stop stop-color="#512F70"/><stop offset="1" stop-color="#4F2D6D"/></linearGradient><linearGradient id="i" x1="6.721" x2="26.819" y1="28.416" y2="28.416" gradientUnits="userSpaceOnUse"><stop stop-color="#D5BCEB"/><stop offset="1" stop-color="#DCCCED"/><stop offset="1" stop-color="#E3D3F2"/></linearGradient><linearGradient id="j" x1="16.25" x2="16.25" y1="26.738" y2="28.157" gradientUnits="userSpaceOnUse"><stop stop-color="#9F84AE"/><stop offset="1" stop-color="#C5B1D6" stop-opacity="0"/></linearGradient><linearGradient id="l" x1="0" x2="1" y1="1.81" y2="1.81" gradientUnits="userSpaceOnUse"><stop offset=".339" stop-color="#7D56C2"/><stop offset=".788" stop-color="#8C6CCC"/></linearGradient><linearGradient id="m" x1="23.047" x2="24.284" y1="13.198" y2="13.198" gradientUnits="userSpaceOnUse"><stop offset=".373" stop-color="#8168B6"/><stop offset=".868" stop-color="#A38AD4"/></linearGradient><filter id="e" width="22" height="4.1" x="5" y="26" color-interpolation-filters="sRGB" filterUnits="userSpaceOnUse"><feFlood flood-opacity="0" result="BackgroundImageFix"/><feBlend in="SourceGraphic" in2="BackgroundImageFix" result="shape"/><feColorMatrix in="SourceAlpha" result="hardAlpha" values="0 0 0 0 0 0 0 0 0 0 0 0 0 0 0 0 0 0 127 0"/><feOffset dy=".1"/><feGaussianBlur stdDeviation=".15"/><feComposite in2="hardAlpha" k2="-1" k3="1" operator="arithmetic"/><feColorMatrix values="0 0 0 0 0.294118 0 0 0 0 0.133333 0 0 0 0 0.419608 0 0 0 1 0"/><feBlend in2="shape" result="effect1_innerShadow_18_20913"/></filter><filter id="g" width="1.732" height="24.594" x="22.315" y="1.828" color-interpolation-filters="sRGB" filterUnits="userSpaceOnUse"><feFlood flood-opacity="0" result="BackgroundImageFix"/><feBlend in="SourceGraphic" in2="BackgroundImageFix" result="shape"/><feGaussianBlur result="effect1_foregroundBlur_18_20913" stdDeviation=".25"/></filter><filter id="h" width="2" height="4.938" x="22.315" y="25.422" color-interpolation-filters="sRGB" filterUnits="userSpaceOnUse"><feFlood flood-opacity="0" result="BackgroundImageFix"/><feBlend in="SourceGraphic" in2="BackgroundImageFix" result="shape"/><feGaussianBlur result="effect1_foregroundBlur_18_20913" stdDeviation=".25"/></filter><radialGradient id="d" cx="0" cy="0" r="1" gradientTransform="matrix(0 -6.6454 1.17096 0 5.399 26.674)" gradientUnits="userSpaceOnUse"><stop stop-color="#51475C"/><stop offset="1" stop-color="#51475C" stop-opacity="0"/></radialGradient><radialGradient id="k" cx="0" cy="0" r="1" gradientTransform="matrix(0 3.03125 -.75 0 23.156 27.219)" gradientUnits="userSpaceOnUse"><stop stop-color="#937BAD"/><stop offset="1" stop-color="#B9A2C9" stop-opacity="0"/></radialGradient></defs></svg>
